X:66
T: Azt gondolod régi babám...
O: Magyarszovát, Kádár Sándorné - Pap Erzsébet (47), Maneszes "Láli" Józsefné - Tóth Mária (58), Székely Andrásné - Sós Erzsébet (50), 1982
M:4/4
L:1/4
K:Bb
g/g/f/f/ g/g/a/g/ | d c G z | 
g/g/f/f/ g/g/a/g/ | d c G z | 
F/A/F/F/ A/A/c/c/ | f/f/f/e/ d/c/ B | 
A/A/F/F/ A/A/c/c/ | G<G G z | 

